X: 8
T: The Forest of Hermanstadt
R: jig
M: 6/8
L: 1/8
Z: 2010 John Chambers <jc:trillian.mit.edu>
B: 19th century tune book collected by W.A. Cocks.
F: http://www.asaplive.com/archive/browse_by_collection.asp
N: The asaplive.com web site is complex, and links to its files don't usually work.
K: A
e |\
c2e B2e | cec A2e | a2a agf |(f3 e2)e|\
c2e B2e | cec A2e | f2f faf | e3 E2 :|
|: e |\
cec A2a | gbg e2d | cea fdB |(A3 G2)e|\
g2a e2a | f2d c2e | f2b gfg | a3 A2 :|


%%sep 5 1 500

